dist/img/svg/bg/scheme-work/object/object.svg

<svg width="275" height="160" viewBox="0 0 275 160" fill="none" xmlns="http://www.w3.org/2000/svg">
<path d="M274.772 159.647C275.152 155.29 274.351 150.912 272.453 146.971C270.554 143.029 267.628 139.671 263.982 137.247C260.335 134.823 256.102 133.423 251.727 133.194C247.352 132.965 242.996 133.915 239.116 135.945C237.241 130.941 235.316 125.848 232 121.661C228.684 117.474 223.671 114.263 218.322 114.46V159.647H274.772Z" fill="#D0FFD4"/>
<path d="M188.616 50.9003H71.6685L49.8186 19.9285L26.9127 51.7771L1.52588e-05 51.3436L29.0049 12.3431L159.404 12.885L188.616 50.9003Z" fill="#E0E0E0"/>
<path d="M130.133 51.3437V159.913H13.3529V51.3437H26.7353L49.8188 19.9286L71.7378 50.8709L130.133 51.3437Z" fill="#F5F5F5"/>
<path d="M86.3143 112.844H113.632V159.913H86.3143V112.844Z" fill="#E0E0E0"/>
<path d="M26.9128 111.514H69.9415V138.122H26.9128V111.514Z" fill="#E0E0E0"/>
<path d="M57.023 111.514H58.0099V138.368H57.023V111.514Z" fill="#EBEBEB"/>
<path d="M39.1304 111.514H40.1173V138.368H39.1304V111.514Z" fill="#EBEBEB"/>
<path d="M39.6244 125.257H57.5168V126.242H39.6244V125.257Z" fill="#EBEBEB"/>
<path d="M26.9128 58.2693H69.9415V84.8771H26.9128V58.2693Z" fill="#E0E0E0"/>
<path d="M57.023 58.2593H58.0099V85.1134H57.023V58.2593Z" fill="#EBEBEB"/>
<path d="M39.1304 58.2593H40.1173V85.1134H39.1304V58.2593Z" fill="#EBEBEB"/>
<path d="M39.6244 72.0114H57.5168V72.9965H39.6244V72.0114Z" fill="#EBEBEB"/>
<path d="M89.1665 58.5059H116.306V84.1581H89.1665V58.5059Z" fill="#E0E0E0"/>
<path d="M130.123 51.3441H177.523V159.903H130.123V51.3441Z" fill="#E0E0E0"/>
<path d="M102.243 58.5059H103.23V84.1581H102.243V58.5059Z" fill="#EBEBEB"/>
<path d="M89.1665 71.4696H116.306V72.4547H89.1665V71.4696Z" fill="#EBEBEB"/>
<path d="M49.8779 46.3985C46.7002 46.3985 44.1242 43.8272 44.1242 40.6553C44.1242 37.4834 46.7002 34.9121 49.8779 34.9121C53.0555 34.9121 55.6315 37.4834 55.6315 40.6553C55.6315 43.8272 53.0555 46.3985 49.8779 46.3985Z" fill="#E0E0E0"/>
<path d="M90.9232 33.612L83.6596 24.6672V3.16223H98.8677V33.7794L90.9232 33.612Z" fill="#F5F5F5"/>
<path d="M90.923 33.612V3.16223H83.6594V24.6672L90.923 33.612Z" fill="#EBEBEB"/>
<path d="M82.643 0H100.565V3.16221H82.643V0Z" fill="#EBEBEB"/>
<path d="M130.133 98.8359H218.322V159.913H130.133V98.8359Z" fill="#F5F5F5"/>
<path d="M163.105 98.8359H218.322V159.913H163.105V98.8359Z" fill="#E0E0E0"/>
<path d="M171.326 118.528H207.436V159.804H171.326V118.528Z" fill="#F5F5F5"/>
<path d="M134.988 118.361H158.249V124.272H134.988V118.361Z" fill="#EBEBEB"/>
<path d="M188.616 50.9008V54.0433H71.7376V50.8712L188.616 50.9008Z" fill="#EBEBEB"/>
<path d="M71.7377 54.0429L49.8779 23.4159L49.8187 19.9286L71.6686 50.9004L71.7377 54.0429Z" fill="#EBEBEB"/>
<path d="M0.562582 51.3441H26.7351V53.3734H0.562582V51.3441Z" fill="#EBEBEB"/>
<path d="M95.6304 105.624H105.292V109.288H95.6304V105.624Z" fill="#E0E0E0"/>
</svg>

<svg width="275" height="160" fill="none" xmlns="http://www.w3.org/2000/svg"><path d="M274.772 159.647a24.338 24.338 0 00-2.319-12.676 24.388 24.388 0 00-8.471-9.724 24.449 24.449 0 00-24.866-1.302c-1.875-5.004-3.8-10.097-7.116-14.284-3.316-4.187-8.329-7.398-13.678-7.201v45.187h56.45z" fill="#D0FFD4"/><path d="M188.616 50.9H71.668l-21.85-30.97-22.904 31.846L0 51.344l29.005-39 130.399.541L188.616 50.9z" fill="#E0E0E0"/><path d="M130.133 51.344v108.569H13.353V51.343h13.382L49.82 19.93l21.918 30.94 58.395.473z" fill="#F5F5F5"/><path d="M86.314 112.844h27.318v47.069H86.314v-47.069zm-59.401-1.33h43.029v26.608h-43.03v-26.608z" fill="#E0E0E0"/><path d="M57.023 111.514h.987v26.854h-.987v-26.854zm-17.893 0h.987v26.854h-.987v-26.854z" fill="#EBEBEB"/><path d="M39.624 125.257h17.893v.985H39.624v-.985z" fill="#EBEBEB"/><path d="M26.913 58.27h43.029v26.607h-43.03V58.27z" fill="#E0E0E0"/><path d="M57.023 58.26h.987v26.853h-.987V58.26zm-17.893 0h.987v26.853h-.987V58.26z" fill="#EBEBEB"/><path d="M39.624 72.011h17.893v.986H39.624v-.986z" fill="#EBEBEB"/><path d="M89.166 58.506h27.14v25.652h-27.14V58.506zm40.957-7.162h47.4v108.559h-47.4V51.344z" fill="#E0E0E0"/><path d="M102.243 58.506h.987v25.652h-.987V58.506z" fill="#EBEBEB"/><path d="M89.166 71.47h27.14v.985h-27.14v-.985z" fill="#EBEBEB"/><path d="M49.878 46.398a5.748 5.748 0 01-5.754-5.743 5.748 5.748 0 015.754-5.743 5.748 5.748 0 015.754 5.743 5.748 5.748 0 01-5.754 5.743z" fill="#E0E0E0"/><path d="M90.923 33.612l-7.263-8.945V3.162h15.208V33.78l-7.945-.167z" fill="#F5F5F5"/><path d="M90.923 33.612V3.162h-7.264v21.505l7.264 8.945zM82.643 0h17.922v3.162H82.643V0z" fill="#EBEBEB"/><path d="M130.133 98.836h88.189v61.077h-88.189V98.836z" fill="#F5F5F5"/><path d="M163.105 98.836h55.217v61.077h-55.217V98.836z" fill="#E0E0E0"/><path d="M171.326 118.528h36.11v41.276h-36.11v-41.276z" fill="#F5F5F5"/><path d="M134.988 118.361h23.261v5.911h-23.261v-5.911zM188.616 50.9v3.143H71.738v-3.172l116.878.03z" fill="#EBEBEB"/><path d="M71.738 54.043l-21.86-30.627-.06-3.487L71.669 50.9l.07 3.143zM.563 51.344h26.172v2.03H.563v-2.03z" fill="#EBEBEB"/><path d="M95.63 105.624h9.662v3.664H95.63v-3.664z" fill="#E0E0E0"/></svg>
